icons/book/book.svg

<svg width="14" height="14" viewBox="0 0 14 14" fill="none" xmlns="http://www.w3.org/2000/svg">
<path d="M10.5025 11.5L4.49756 11.5C3.94527 11.5 3.49756 11.0523 3.49756 10.5V3.5C3.49756 2.94772 3.94527 2.5 4.49756 2.5H10.5025" stroke="red" stroke-linecap="round" stroke-linejoin="round"/>
<path d="M10.5025 11.5L4.49756 11.5C3.94527 11.5 3.49756 11.0523 3.49756 10.5V10.5C3.49756 9.94771 3.94527 9.5 4.49756 9.5H10.5025" stroke="red" stroke-linecap="round" stroke-linejoin="round"/>
<path d="M10.5 2.5V11.5" stroke="red" stroke-linecap="round" stroke-linejoin="round"/>
</svg>

<svg xmlns="http://www.w3.org/2000/svg" width="14" height="14" fill="none" viewBox="0 0 14 14"><path stroke="red" stroke-linecap="round" stroke-linejoin="round" d="M10.503 11.5H4.498a1 1 0 0 1-1-1v-7a1 1 0 0 1 1-1h6.004"/><path stroke="red" stroke-linecap="round" stroke-linejoin="round" d="M10.503 11.5H4.498a1 1 0 0 1-1-1v0a1 1 0 0 1 1-1h6.004m-.002-7v9"/></svg>
